X:1
T:days in the sun
T:days in the sun
T:piano arrangement
T:arr. A Palmer
C:arr. abby palmer
%%score { ( 1 5 ) | ( 2 3 4 ) }
L:1/8
Q:1/4=114
M:4/4
K:Bb
V:1 treble nm="Piano" snm="Pno."
V:5 treble 
V:2 treble 
V:3 treble 
V:4 treble 
V:1
!p! (dB b2 a2 f2) | B8 | (dB b2 a2 f2) | B8 | (d2 df d4) | z2 df b2 a2 | d2 df d4 | z2 df b2 a2 | %8
!<(! e2 ef e4!<)! | z2!mp! ef!>(! b3 a!>)! | g4 f4 |!p! [B,D]4!<(! [A,EF]4!<)! | %12
!<(! d3 c d2 a2!<)! | g4!>(! f4!>)! |!mp! D2 DF D4 | z2 DF [GB]2 A2 | D2 DF D4 | %17
!<(! z2 [Dd][Ff] [Bb]2 [Aa]2!<)! |[K:D]!f! (3[Aa]2 [Aa]2 [Bb]2 [Aa]4 | %19
 z2 [Aa][Aa] (3[Aa]2!>(! [Ee]2 [DB]2!>)! |[K:Bb]!mf! [EA]4!>(! z2 z2!>)! | z4!mp! [FB]2 A2 | %22
 [EG]2 GB G4 | z2 GB [Fc]2 cB | D2 F2 D2 z2 | A,2 B,2 D2 F2 | c6 B2 | c8 | D4 z4 | z4 [Af]4 | %30
 [Bg]2 b2 [eg]4 | z2 gb c'2 b2 | d'4 b4 |!>(! a4 z2!p! f'2!>)! | [gd']4 [gb]4 | [Bf]4 [eb]4 | %36
 g2 gb g2 gb |!8va(!!<(! g'4 g'g' a2!8va)!!<)! |!mp! [db]2 DE FBAG | F2 B,6 | G,2 G,A, B,FED | %41
 D6 B,D | z2 [G,E]C B,2 A,2 | C2 B,4 B,D | D2 C2 C2 B,2 | C4 F2 FA | [B,B]2 B,A, B,A,B,G | %47
 F2 [B,A]B c2 B2 | [B,F]2 B,A, B,A,B,A | [Fd]8 |[K:A]!mf! F3!<(! =G G3 ^G!<)! | G3 A A3!ff! A | %52
!mf! F3!<(! G G3 A!<)! |!<(! A2 B2!ff! [EB]4!<)! | [FAf]2 [Ff][Aa] [Fdf]4 | %55
 z2 [Ff][Aa] [Bdb]3 [Aa] | [cfc']6 [Afa]2 |!>(! [Geg]6 [Ge]2!>)!!mf! | [Fc]4 [DA]4 | [B,E]6 [EA]2 | %60
 [CF]2 FA [CF]2 FA |!>(! [Ff]4 [G,G]4!>)! |!mp!!>(! A8!>)! | [A,A]8 |!p! cA!>(! a2 g2 e2!>)! | %65
 A4 z4 | A4 a4 |!pp! !arpeggio![ac'e']4 z4 |] %68
V:2
!ped! z2 F6!ped-up! |!ped! ([FA]4 [EG]4)!ped-up! |!ped! z2 F6!ped-up! |!ped! [FA]4 [EG]4!ped-up! | %4
!ped! DB, B2 A2 F2!ped-up! |[K:bass]!ped! ([F,B,]4 [E,G,]4)!ped-up! | %6
[K:][K:treble]!ped! DB, B2 A2 F2!ped-up! |[K:bass]!ped! [F,B,]4 [E,G,]4!ped-up! | %8
[K:treble]!ped! EC c2 B2 A2!ped-up! |!ped! [B,E]4 A,4!ped-up! | %10
[K:bass]!ped! [G,D]B, D2 D,A,CD!ped-up! |!ped! E,B, E2!ped! C,F, C2!ped-up! | %12
!ped! G,,D, G,2!ped! F,,C, F,2!ped-up! |!ped! E,,!mf!B,, E,2!ped! F,,C, F,2!ped-up! | %14
!ped! F,D,F,D, F,D,F,D,!ped-up! |!ped! F,D,F,D,!ped! G,E,G,E,!ped-up! |"^etc" F,D,F,D, F,D,F,D, | %17
 F,D,F,D, F,E,=E,^C, |[K:D] D,,A,,D,A,, [D,F,]2 [D,A,]2 | D,,A,,D,A,, [D,F,]2 [D,A,]2 | %20
[K:Bb] z B,A,G, F,E,D,E, | C,D, B,,2 F,,4 | z B,EB, EB,EB, | E,B,EB, FCFC | B,,F,B,F, B,,D,F,D, | %25
 B,,D,F,D, B,,F,B,F, | F,,C,F,C, F,,C,F,C, | F,,C,F,C, F,,C,F,C, | z B,A,G, F,E,D,E, | %29
 C,D, B,,2 F,,C, F,2 | E,G, B,2 G,2 F,2 | E,G, B,2 G,4 | [G,B,D]4 G2 B,G, | [D,F,A,]4 D,2 DA, | %34
 G,B, D2 G,B, D2 | E,G, B,2 E,G,B,G, | C,2 [C,E,]2 [C,G,]2 [E,C]2 | F,2 [F,A,]2 [F,C]2 [A,F]2 | %38
[K:bass] D2 z2 z4 | F,A,F,C, E,G,B,A, | E,,B,, E,2 E,,B,, E,2 | B,,F, B,2 B,,F,B,A, | %42
 C,,G,, C,2 C,,G,,C,G,, | G,,D, G,2 G,,D, G,2 | C,,G,,C,E, C,E,G,E, | F,,C,F,C, A,F,C,F, | %46
 E,,G,, B,,2 E,,G,, B,,2 | B,,C, F,2 B,,C, E,2 | G,,B,, D,2 G,,B,, D,2 | B,,D, F,2 B,,D, F,2 | %50
[K:A] z2 !>![D,,,D,,]2 z2 !>![D,,,D,,]2 | z2 !>![D,,,D,,]2 z2 !>![D,,,D,,]2 | %52
 z2 [D,,,D,,]2 z2 [D,,,D,,]2 | z2 D,,2 !arpeggio![E,,B,,E,]4 | D,,A,, D,2 D,,A,,D,A,, | %55
 D,,A,, D,2 D,,A,,D,A,, | F,,C, F,2 F,,C,F,C, | E,,B,, E,2 E,,B,,E,B,, | D,,A,, D,2 D,,A,,D,A,, | %59
 E,,B,, E,2 E,,B,,E,B,, | F,,C, F,2 F,,C,F,C, | D,,A,, D,2 E,,B,, E,2 | A,,E, A,6 | %63
 [B,,E,G,]4 [D,F,]4 | A,4 z4 | [E,G,]4 [D,F,]4 |"_arpeggios ad. lib" A,,,8 | A,8 |] %68
V:3
 z D- D6 | C8 | z D- D6 | C8 | F,8 |[K:bass] C8 |[K:][K:treble] F,8 |[K:bass] C8 |[K:treble] B,8 | %9
 F,8 |[K:bass] x8 | x8 | x8 | x8 | B,,8 | B,,8 | B,,8 | B,,6 A,,2 |[K:D] x8 | x8 |[K:Bb] F,8 | x8 | %22
 G,3 F, E,4 | B,,4 z4 | x8 | x8 | x8 | x8 | B,,8 | x8 | x8 | x8 | x8 | x8 | x8 | x8 | x8 | x8 | %38
[K:bass] B,F,D,F, B,,F,B,D, | x8 | x8 | x8 | x8 | x8 | x8 | x8 | x8 | x8 | x8 | x8 |[K:A] x8 | x8 | %52
 x8 | x8 | x8 | x8 | x8 | x8 | x8 | x8 | x8 | x8 | x8 | x8 | x8 | x8 | x8 | x8 |] %68
V:4
 B,8 | x8 | B,8 | x8 | x8 |[K:bass] x8 |[K:][K:treble] x8 |[K:bass] x8 |[K:treble] x8 | x8 | %10
[K:bass] x8 | x8 | x8 | x8 | x8 | x8 | x8 | x8 |[K:D] x8 | x8 |[K:Bb] x8 | x8 | x8 | x8 | x8 | x8 | %26
 x8 | x8 | x8 | x8 | x8 | x8 | x8 | x8 | x8 | x8 | x8 | x8 |[K:bass] x8 | x8 | x8 | x8 | x8 | x8 | %44
 x8 | x8 | x8 | x8 | x8 | x8 |[K:A] x8 | x8 | x8 | x8 | x8 | x8 | x8 | x8 | x8 | x8 | x8 | x8 | %62
 x8 | x8 | x8 | x8 | x8 | x8 |] %68
V:5
 x8 | x8 | x8 | x8 | x8 | x8 | x8 | x8 | x8 | x8 | d3 B A2 F2 | x8 | G4 A4 | B4 [FB]2 E2 | x8 | %15
 x8 | x8 | x8 |[K:D] x8 | x8 |[K:Bb] x8 | x8 | x8 | x8 | B,4 C2 B,2 | x8 | C2 CF C4 | x2 CF G3 F | %28
 x BAG FEDE | CD B,2 z4 | x8 | x2 B2 e4 | d4 B4 | c4 z4 | x8 | x8 | e4 e4 |!8va(! a4 x4!8va)! | %38
 x8 | x8 | x8 | x8 | x8 | x8 | x8 | x8 | x8 | x8 | x8 | x8 |[K:A] x8 | x8 | x8 | x8 | x8 | x8 | %56
 x8 | x8 | x8 | x8 | x8 | x8 | CA, A2 G2 E2 | x8 | x8 | x8 | x8 | x8 |] %68

